X:1
T:When the Bridegroom Comes
T:When the Bridegroom Comes
T:Robert Emmett Winsett
T:Robert Emmett Winsett, 1908
T:Public Domain Courtesy of the Cyber Hymnal™
T:Public Domain Courtesy of the Cyber Hymnal™
C:Robert Emmett Winsett
Z:Public Domain
Z:Courtesy of the Cyber Hymnal™
%%score ( 1 2 ) ( 3 4 )
L:1/8
Q:1/4=100
M:4/4
K:G
V:1 treble 
V:2 treble 
V:3 bass 
V:4 bass 
V:1
 [DG]>[DA] | [GB] [GB]2 [B,D] [B,D]2 D>D | [CE]2 [EG]2 [DG]2 [DG]>G | [FA] [FA]2 [FA] [FA]2 G[FA] | %4
w: 1.~I’ll be|rea- dy to go when the|Bride- groom comes, I’ll be|rea- dy to go when the|
w: 2.~I’ll be|rea- dy to go when the|Bride- groom comes, I’ll be|rea- dy to go when the|
w: 3.~I’ll be|rea- dy to go when the|Bride- groom comes, I’ll be|rea- dy to go when the|
w: 4.~I’ll be|rea- dy to go when the|Bride- groom comes, I’ll be|rea- dy to go when the|
 [GB]2 [Gd]2 [Gd]2 [GB][Gc] | [Gd][Gd][GB][FA] G2 G[FA] | [EB][EA][EG][CE] D2 [DB][Dc] | %7
w: Bride- groom comes; I am|cleansed from ev- ery sin, Have the|life of Christ with- in; I’ll be|
w: Bride- groom comes; On the|fi- nal judg- ment day, I’ll be|robed in bright ar- ray, And go|
w: Bride- groom comes; Soon I’ll|see my Sav- ior’s face, Learn His|love for hu- man race, How my|
w: Bride- groom comes; I’ll be|watch- ing for my Lord, I’ll be|an- chored on His Word, Wait- ing|
 [Gd][GB][Gd][GB] G2 [GB][FA] | G6 ||"^Refrain" [DB]>[Dc] | [Gd]<[Gd] [GB]>[FA] [EG]2 [FA]2 | %11
w: rea- dy for the end, When He|comes.|||
w: home with Him to stay, When He|comes.|I’ll be|rea- dy when the Bride- groom|
w: soul was saved by grace, When He|comes.|||
w: then to be trans- ferred, When He|comes.|||
 [GB]6 [DB]>[Dc] | [Gd]<[Gd] [Gd]>[GB] [EA]2 [FA]2 | [FA]6 [DG]>[DA] | %14
w: |||
w: comes, I’ll be|rea- dy when the Bride- groom|comes. Be it|
w: |||
w: |||
 [GB]>[DA] [DG][CE] [B,D]2 [DG]>[DA] | %15
w: |
w: noon or be it night, I’ll be|
w: |
w: |
 [GB]>[DA] [DG][CE] [B,D]2 [DB]>[Dc][Gd][GB][Gd][GB] G2 [GB][FA] | G6 |] %17
w: ||
w: robed in spot- less white, Have my lamp all burn- ing bright, When He|comes.|
w: ||
w: ||
V:2
 x2 | x6 D>D | x15/2 G/ | x6 G x | x8 | x4 G2 G x | x4 D2 x2 | x4 G2 x2 | G6 || x2 | x8 | x8 | x8 | %13
 x8 | x8 | x12 G2 x2 | G6 |] %17
V:3
 [G,B,]>[G,C] | [G,D] [G,D]2 [G,,G,] [G,,G,]2 [B,,G,]>[B,,G,] | %2
 [C,G,]2 [C,C]2 [G,,B,]2 [B,,D]>[B,,D] | [D,D] [D,D]2 [D,D] [D,D]2 [B,,D][D,D] | %4
 [G,D]2 [G,B,]2 [G,B,]2 G,[G,A,] | [G,B,][G,B,][G,D][G,C] [G,B,]2 [B,,D][B,,D] | %6
 [C,C][C,C][C,G,][E,G,] [G,B,]2 G,[G,A,] | [G,B,][G,D][G,B,]G, [D,B,]2 [D,D][D,C] | [G,,B,]6 || %9
 G,>[G,A,] | [G,B,]<[G,B,] [D,D]>[^D,C] [E,B,]2 [=D,=D]2 | [G,D]6 G,>[G,A,] | %12
 [G,B,]<[G,B,] [G,B,]>[G,D] [F,D]2 [E,^C]2 | [D,D]6 [G,B,]>[G,C] | %14
 [G,D]>[G,C] [G,B,]G, G,2 [G,B,]>[G,C] | %15
 [G,D]>[G,C] [G,B,]G, G,2 G,>[G,A,][G,B,][G,D][G,B,]G, [D,B,]2 [D,D][D,C] | [G,,B,]6 |] %17
V:4
 x2 | x8 | x8 | x8 | x6 G, x | x8 | x6 G, x | x3 G, x4 | x6 || G,3/2 x/ | x8 | x6 G,3/2 x/ | x8 | %13
 x8 | x3 G, G,2 x2 | x3 G, G,2 G,3/2 x2 G, x11/2 | x6 |] %17

